packages/swarm-icons/src/icons/large/Lightbulb Selected.svg

<svg xmlns="http://www.w3.org/2000/svg" width="28" height="28" viewBox="0 0 28 28">
  <path fill="#212121" d="M8.57042315,16.7385237 C8.31425991,16.3367879 8.04022419,15.9929476 7.56651016,15.4555108 C7.51387993,15.3958008 7.44436271,15.3172909 7.31981582,15.1766068 C5.64423741,13.2807141 5,11.9272625 5,9.27979337 C5,4.70077649 8.80364107,1 13.4823481,1 L13.5176519,1 C18.1963589,1 22,4.70077649 22,9.27979337 C22,11.9271658 21.355785,13.2802917 19.6798948,15.1765953 C19.5560896,15.3164486 19.4869652,15.3945188 19.4346589,15.453861 C18.960076,15.9922811 18.6859851,16.3362048 18.4295059,16.738635 C18.0590687,17.3194153 17.8711495,18.2941999 17.9131517,19.6596193 C17.935475,20.3774428 17.3715045,20.9772889 16.6537495,20.9993681 C16.6337663,20.9998803 16.6337663,20.9998803 16.6138017,20.9999827 L10.3862983,21.0001378 C9.6682425,21.0001378 9.08614326,20.4180385 9.08614326,19.6999827 C9.08624419,19.6801423 9.08624419,19.6801423 9.08674875,19.660308 C9.12845241,18.2943006 8.94051243,17.3192559 8.57042315,16.7385237 Z M11,24 C10.4477153,24 10,23.5522847 10,23 C10,22.4477153 10.4477153,22 11,22 L16,22 C16.5522847,22 17,22.4477153 17,23 C17,23.5522847 16.5522847,24 16,24 L11,24 Z M13,27 C12.4477153,27 12,26.5522847 12,26 C12,25.4477153 12.4477153,25 13,25 L14,25 C14.5522847,25 15,25.4477153 15,26 C15,26.5522847 14.5522847,27 14,27 L13,27 Z M12.2580152,4.78186597 C10.0312379,5.52495808 8.5,7.6154541 8.5,10 C8.5,10.5522847 8.94771525,11 9.5,11 C10.0522847,11 10.5,10.5522847 10.5,10 C10.5,8.48245045 11.4747701,7.15166251 12.8911095,6.67901955 C13.4149939,6.50419541 13.6979633,5.93778015 13.5231391,5.41389565 C13.348315,4.89001116 12.7818997,4.60704183 12.2580152,4.78186597 Z"/>
</svg>

<svg xmlns="http://www.w3.org/2000/svg" width="28" height="28"><path fill="#212121" d="M8.57 16.739c-.256-.402-.53-.746-1.003-1.283l-.247-.28C5.644 13.282 5 11.928 5 9.28 5 4.7 8.804 1 13.482 1h.036C18.196 1 22 4.7 22 9.28c0 2.647-.644 4-2.32 5.897l-.245.277c-.475.538-.749.882-1.005 1.285-.37.58-.559 1.555-.517 2.92a1.3 1.3 0 01-1.26 1.34l-.04.001h-6.227a1.3 1.3 0 01-1.3-1.3v-.04c.042-1.366-.145-2.34-.516-2.921zM11 24a1 1 0 010-2h5a1 1 0 010 2h-5zm2 3a1 1 0 010-2h1a1 1 0 010 2h-1zm-.742-22.218A5.502 5.502 0 008.5 10a1 1 0 002 0c0-1.518.975-2.848 2.391-3.321a1 1 0 00-.633-1.897z"/></svg>
